X: 531
M: C|
L: 1/8
K: Amix
V: 1
|:\
E2EF EFA(c | TB)ABc BAFA |\
E2EF EFAc | TB>ABc A/A/A A2 :|\
cAdB ecfd | ^geac A/A/A A2 |]
V: 2 clef=bass middle=d
|:\
a2a2 a2a2 | a2a2 b2b2 |\
a2a2 a2a2 | e2e2 A2A2 :|\
a2a2 a2a2 | g2g2 g2g2 |
a2a2 a2a2 | d2e2 A2A2 |\
a2a2 a2a2 | g2g2 G2G2 |\

